X:19
M:none
L:1/4
K:Bm
%%score (C A) | (T B)
V:C clef=treble
V:A clef=treble
V:T clef=bass
V:B clef=bass
[V:C] F0 F0 d0 d0 c0 B0 B4 | F0 F0 F0 F0 F0 F0 F0 E4 |
w: All who see me de-ride me | They curl their lips and toss their heads | 
[V:C]  F0 B0 B0 B0 B0 B4 c0 d0 (d0 c0 d0 c0) B4 | ^A0 A0 A0 A0 A4 A0 A0 =G0 G0 F4 ||
w: He trust-ed in the Lord, let him save - - - him; | let him re-lease him, if this is his friend. ||

%
